src/lib/packages/icons/src/assets/line/arrow-right-from-line.svg

<svg width="24" height="24" viewBox="0 0 24 24" fill="none" xmlns="http://www.w3.org/2000/svg">
<path d="M21.6919 12.2871C21.6539 12.3791 21.599 12.462 21.53 12.531L16.53 17.531C16.384 17.677 16.192 17.751 16 17.751C15.808 17.751 15.616 17.678 15.47 17.531C15.177 17.238 15.177 16.763 15.47 16.47L19.1899 12.75H7C6.586 12.75 6.25 12.414 6.25 12C6.25 11.586 6.586 11.25 7 11.25H19.189L15.469 7.53003C15.176 7.23703 15.176 6.76199 15.469 6.46899C15.762 6.17599 16.237 6.17599 16.53 6.46899L21.53 11.469C21.599 11.538 21.6539 11.6209 21.6919 11.7129C21.7679 11.8969 21.7679 12.1031 21.6919 12.2871ZM4 5.25C3.586 5.25 3.25 5.586 3.25 6V18C3.25 18.414 3.586 18.75 4 18.75C4.414 18.75 4.75 18.414 4.75 18V6C4.75 5.586 4.414 5.25 4 5.25Z" fill="currentColor"/>
</svg>

<svg xmlns="http://www.w3.org/2000/svg" width="24" height="24" fill="none"><path fill="currentColor" d="M21.692 12.287a.748.748 0 0 1-.162.244l-5 5a.748.748 0 0 1-1.06 0 .75.75 0 0 1 0-1.061l3.72-3.72H7a.75.75 0 0 1 0-1.5h12.189l-3.72-3.72a.75.75 0 0 1 1.061-1.061l5 5a.748.748 0 0 1 .162.818ZM4 5.25a.75.75 0 0 0-.75.75v12a.75.75 0 0 0 1.5 0V6A.75.75 0 0 0 4 5.25Z"/></svg>
